svgs/raiffeisen_twint.svg

<svg viewBox="0 0 192 192" xml:space="preserve" style="fill-rule:evenodd;clip-rule:evenodd;stroke-linejoin:round;stroke-miterlimit:2" xmlns="http://www.w3.org/2000/svg"><path d="M1603.35 676.902a5.999 5.999 0 0 0-6 0l-53.65 30.975a5.994 5.994 0 0 0-3 5.197v61.951a5.993 5.993 0 0 0 3 5.196l53.65 30.975a5.999 5.999 0 0 0 6 0l53.65-30.975a5.993 5.993 0 0 0 3-5.196v-61.951a5.994 5.994 0 0 0-3-5.197l-53.65-30.975Zm-3 12.124 47.65 27.512v55.022l-47.65 27.512-47.65-27.512v-55.022l47.65-27.512Zm-11.6 71.565-17.13-25.499c-.37-.879-1.21-3.504.84-5.55 1.5-1.498 3.2-1.463 4.26-1.241a6.006 6.006 0 0 0 7.11-4.637 6.007 6.007 0 0 0-4.64-7.106c-3.78-.796-9.86-.855-15.21 4.498-8.42 8.419-2.98 19.658-2.98 19.658.12.236.25.464.4.683l22.26 33.128a5.993 5.993 0 0 0 5 2.653 5.981 5.981 0 0 0 4.98-2.69l3.95-5.972a6.002 6.002 0 0 0-1.69-8.315 6.013 6.013 0 0 0-7.15.39Zm-2.1-18.909 21.76 32.812a5.999 5.999 0 0 0 9.97.04l16.65-24.671a6.009 6.009 0 0 0-1.62-8.329 6.001 6.001 0 0 0-8.33 1.618l-11.63 17.235-5.25-7.914 7.55-11.407c1.06-1.532 2.09-4.485 2.06-7.971-.03-4.285-1.56-9.313-5.34-12.738-2.55-2.309-6.13-4.017-11.17-4.081-5.07-.065-8.75 1.626-11.39 3.999-3.84 3.449-5.49 8.625-5.53 13.068-.04 3.556 1.03 6.597 2.27 8.339Zm18.99-7.085c.62-1.478-.11-6.106-4.49-6.322-4.69-.232-5.43 5.421-4.59 6.637l.01.016 4.43 6.684 4.64-7.015ZM1512 688.098h2.94l7.05 15.139a6.002 6.002 0 0 0 7.97 2.907 5.996 5.996 0 0 0 2.91-7.972l-6.56-14.094c4.08-3.181 7.11-7.834 7.11-13.031 0-6.707-2.24-11.295-5.74-14.331-3.32-2.878-8.04-4.446-14.01-4.446-2.12 0-5.52.088-7.67.088-3.31 0-6 2.686-6 6v42.077c0 3.311 2.69 6 6 6s6-2.689 6-6v-12.337Zm4.35-12a9.952 9.952 0 0 0 3.59-2.231c.79-.783 1.48-1.703 1.48-2.82 0-2.392-.36-4.183-1.6-5.266-1.43-1.239-3.58-1.511-6.15-1.511-.5 0-1.06.004-1.67.012v11.816h4.35Z" style="fill-rule:evenodd;clip-rule:evenodd;stroke-linejoin:round;stroke-miterlimit:2" transform="translate(-1484 -636)"/></svg>

<?xml version="1.0" encoding="UTF-8" standalone="no"?>
<svg
   width="100%"
   height="100%"
   viewBox="0 0 192 192"
   version="1.1"
   xml:space="preserve"
   style="fill-rule:evenodd;clip-rule:evenodd;stroke-linejoin:round;stroke-miterlimit:2;"
   id="svg3723"
   sodipodi:docname="raiffeisen_twint.svg"
   inkscape:version="1.2.1 (9c6d41e410, 2022-07-14)"
   xmlns:inkscape="http://www.inkscape.org/namespaces/inkscape"
   xmlns:sodipodi="http://sodipodi.sourceforge.net/DTD/sodipodi-0.dtd"
   xmlns="http://www.w3.org/2000/svg"
   xmlns:svg="http://www.w3.org/2000/svg"><defs
   id="defs3727" /><sodipodi:namedview
   id="namedview3725"
   pagecolor="#ffffff"
   bordercolor="#000000"
   borderopacity="0.25"
   inkscape:showpageshadow="2"
   inkscape:pageopacity="0.0"
   inkscape:pagecheckerboard="0"
   inkscape:deskcolor="#d1d1d1"
   showgrid="false"
   inkscape:zoom="5.3489583"
   inkscape:cx="96.093476"
   inkscape:cy="95.906524"
   inkscape:window-width="1274"
   inkscape:window-height="1303"
   inkscape:window-x="1282"
   inkscape:window-y="36"
   inkscape:window-maximized="0"
   inkscape:current-layer="svg3723" />
    <path
   d="M1603.35,676.902C1601.49,675.83 1599.2,675.83 1597.35,676.902L1543.7,707.877C1541.84,708.949 1540.7,710.93 1540.7,713.074L1540.7,775.025C1540.7,777.168 1541.84,779.149 1543.7,780.221L1597.35,811.196C1599.2,812.268 1601.49,812.268 1603.35,811.196L1657,780.221C1658.86,779.149 1660,777.168 1660,775.025L1660,713.074C1660,710.93 1658.86,708.949 1657,707.877L1603.35,676.902ZM1600.35,689.026L1648,716.538C1648,716.538 1648,771.56 1648,771.56C1648,771.56 1600.35,799.072 1600.35,799.072C1600.35,799.072 1552.7,771.56 1552.7,771.56C1552.7,771.56 1552.7,716.538 1552.7,716.538L1600.35,689.026ZM1588.75,760.591L1571.62,735.092C1571.25,734.213 1570.41,731.588 1572.46,729.542C1573.96,728.044 1575.66,728.079 1576.72,728.301C1579.96,728.983 1583.15,726.905 1583.83,723.664C1584.51,720.424 1582.43,717.24 1579.19,716.558C1575.41,715.762 1569.33,715.703 1563.98,721.056C1555.56,729.475 1561,740.714 1561,740.714C1561.12,740.95 1561.25,741.178 1561.4,741.397L1583.66,774.525C1584.78,776.19 1586.65,777.185 1588.66,777.178C1590.67,777.171 1592.54,776.161 1593.64,774.488L1597.59,768.516C1599.42,765.754 1598.66,762.028 1595.9,760.201C1593.64,758.707 1590.74,758.943 1588.75,760.591ZM1586.65,741.682L1608.41,774.494C1609.52,776.164 1611.38,777.17 1613.39,777.178C1615.39,777.186 1617.26,776.194 1618.38,774.534L1635.03,749.863C1636.88,747.118 1636.15,743.386 1633.41,741.534C1630.66,739.681 1626.93,740.407 1625.08,743.152L1613.45,760.387L1608.2,752.473L1615.75,741.066C1616.81,739.534 1617.84,736.581 1617.81,733.095C1617.78,728.81 1616.25,723.782 1612.47,720.357C1609.92,718.048 1606.34,716.34 1601.3,716.276C1596.23,716.211 1592.55,717.902 1589.91,720.275C1586.07,723.724 1584.42,728.9 1584.38,733.343C1584.34,736.899 1585.41,739.94 1586.65,741.682ZM1605.64,734.597C1606.26,733.119 1605.53,728.491 1601.15,728.275C1596.46,728.043 1595.72,733.696 1596.56,734.912L1596.57,734.928L1601,741.612L1605.64,734.597ZM1512,688.098L1514.94,688.098L1521.99,703.237C1523.39,706.239 1526.96,707.542 1529.96,706.144C1532.97,704.746 1534.27,701.174 1532.87,698.172L1526.31,684.078C1530.39,680.897 1533.42,676.244 1533.42,671.047C1533.42,664.34 1531.18,659.752 1527.68,656.716C1524.36,653.838 1519.64,652.27 1513.67,652.27C1511.55,652.27 1508.15,652.358 1506,652.358C1502.69,652.358 1500,655.044 1500,658.358L1500,700.435C1500,703.746 1502.69,706.435 1506,706.435C1509.31,706.435 1512,703.746 1512,700.435L1512,688.098ZM1516.35,676.098C1517.63,675.644 1518.92,674.872 1519.94,673.867C1520.73,673.084 1521.42,672.164 1521.42,671.047C1521.42,668.655 1521.06,666.864 1519.82,665.781C1518.39,664.542 1516.24,664.27 1513.67,664.27C1513.17,664.27 1512.61,664.274 1512,664.282L1512,676.098L1516.35,676.098Z"
   id="path3717"
   style="fill-rule:evenodd;clip-rule:evenodd;stroke-linejoin:round;stroke-miterlimit:2"
   transform="translate(-1484,-636)"
   inkscape:label="raiffeisen_twint" />
</svg>
